Origami/64x64/apps/Ri-li.svg

<svg width="64" height="64" version="1" xmlns="http://www.w3.org/2000/svg">
 <rect transform="matrix(0,-1,-1,0,0,0)" x="-61" y="-60" width="56" height="56" rx="2.8" ry="2.8" style="opacity:.2"/>
 <rect transform="matrix(0,-1,-1,0,0,0)" x="-60" y="-60" width="56" height="56" rx="2.8" ry="2.8" style="fill:#52845f"/>
 <path d="m15.398828 21c-1.821234 0-3.398828 1.547212-3.398828 3.39336v13.21396c0 1.846148 1.577733 3.415842 3.398828 3.39336h16.601172v19.99932h6v-23.2c-1.54e-4 -1.546334-1.253666-2.799846-2.8-2.8h-17.2v-8h28v34h6v-36.60664c0-1.846148-1.577594-3.39336-3.398828-3.39336z" style="opacity:.2"/>
 <path d="m15.398828 20c-1.821234 0-3.398828 1.547212-3.398828 3.39336v13.21396c0 1.846148 1.577733 3.415842 3.398828 3.39336h16.601172v19.99932h6v-23.2c-1.54e-4 -1.546334-1.253666-2.799846-2.8-2.8h-17.2v-8h28v34h6v-36.60664c0-1.846148-1.577594-3.39336-3.398828-3.39336z" style="fill:#fbc295"/>
 <path d="M 6.8007812 4 C 5.2495812 4 4 5.2495812 4 6.8007812 L 4 7.8007812 C 4 6.2495812 5.2495812 5 6.8007812 5 L 57.199219 5 C 58.750419 5 60 6.2495813 60 7.8007812 L 60 6.8007812 C 60 5.2495813 58.750419 4 57.199219 4 L 6.8007812 4 z" style="fill:#ffffff;opacity:.2"/>
 <path d="m15.398438 20c-1.821235 0-3.398438 1.548383-3.398438 3.394531v1c0-1.846148 1.577203-3.394531 3.398438-3.394531h33.203124c1.821234 0 3.398438 1.548383 3.398438 3.394531v-1c0-1.846148-1.577204-3.394531-3.398438-3.394531h-33.203124zm2.601562 14v1h17.199219c1.546334 1.54e-4 2.800627 1.254447 2.800781 2.800781v-1c-1.54e-4 -1.546334-1.254447-2.800627-2.800781-2.800781h-17.199219z" style="fill:#ffffff;opacity:.2"/>
</svg>

<svg xmlns="http://www.w3.org/2000/svg" width="64" height="64" version="1">
 <rect style="opacity:0.2" width="56" height="56" x="-61" y="-60" rx="2.8" ry="2.8" transform="matrix(0,-1,-1,0,0,0)"/>
 <rect style="fill:#52845f" width="56" height="56" x="-60" y="-60" rx="2.8" ry="2.8" transform="matrix(0,-1,-1,0,0,0)"/>
 <path style="opacity:0.2" d="M 15.398828,21 C 13.577594,21 12,22.547212 12,24.39336 v 13.21396 c 0,1.846148 1.577733,3.415842 3.398828,3.39336 H 32 V 61 h 6 V 37.8 C 37.999846,36.253666 36.746334,35.000154 35.2,35 H 18 V 27 H 46 V 29.998828 37.20664 61 h 6 V 37.20664 29.998828 24.39336 C 52,22.547212 50.422406,21 48.601172,21 Z"/>
 <path style="fill:#fbc295" d="M 15.398828,20 C 13.577594,20 12,21.547212 12,23.39336 v 13.21396 c 0,1.846148 1.577733,3.415842 3.398828,3.39336 H 32 V 60 h 6 V 36.8 C 37.999846,35.253666 36.746334,34.000154 35.2,34 H 18 V 26 H 46 V 28.998828 36.20664 60 h 6 V 36.20664 28.998828 23.39336 C 52,21.547212 50.422406,20 48.601172,20 Z"/>
 <path style="opacity:0.2;fill:#ffffff" d="M 6.8007812 4 C 5.2495812 4 4 5.2495812 4 6.8007812 L 4 7.8007812 C 4 6.2495812 5.2495812 5 6.8007812 5 L 57.199219 5 C 58.750419 5 60 6.2495813 60 7.8007812 L 60 6.8007812 C 60 5.2495813 58.750419 4 57.199219 4 L 6.8007812 4 z"/>
 <path style="opacity:0.2;fill:#ffffff" d="M 15.398438 20 C 13.577203 20 12 21.548383 12 23.394531 L 12 24.394531 C 12 22.548383 13.577203 21 15.398438 21 L 48.601562 21 C 50.422796 21 52 22.548383 52 24.394531 L 52 23.394531 C 52 21.548383 50.422796 20 48.601562 20 L 15.398438 20 z M 18 34 L 18 35 L 35.199219 35 C 36.745553 35.000154 37.999846 36.254447 38 37.800781 L 38 36.800781 C 37.999846 35.254447 36.745553 34.000154 35.199219 34 L 18 34 z"/>
</svg>
